src/assets/svg/engine.svg

<svg width="40" height="30" fill="none" xmlns="http://www.w3.org/2000/svg">
  <path d="M40 12.5v10c0 .33-.14.64-.37.88-.24.23-.55.37-.88.37-.34 0-.65-.14-.89-.37-.23-.24-.36-.55-.36-.88v-3.75H35v2.5c0 .66-.27 1.29-.74 1.76s-1.1.74-1.76.74h-1.99L25 29.26a2.518 2.518 0 0 1-1.77.74H13.01c-.33 0-.65-.07-.95-.19-.31-.13-.58-.31-.81-.55l-5.52-5.51c-.24-.24-.42-.51-.55-.82-.12-.3-.19-.62-.18-.95v-3.23H2.5v3.75c0 .33-.14.64-.37.88-.24.23-.55.37-.88.37-.34 0-.65-.14-.89-.37-.23-.24-.36-.55-.36-.88v-10c0-.34.13-.65.36-.89a1.266 1.266 0 0 1 1.77 0c.23.24.37.55.37.89v3.75H5V7.5c0-.67.26-1.3.73-1.77S6.83 5 7.5 5h10V2.5h-3.75c-.34 0-.65-.14-.89-.37a1.266 1.266 0 0 1 0-1.77c.24-.23.55-.36.89-.36h10c.33 0 .64.13.88.36.23.24.37.55.37.89 0 .33-.14.64-.37.88-.24.23-.55.37-.88.37H20V5h3.23c.33-.01.65.06.95.18.31.13.58.31.82.55l5.51 5.52h1.99c.66 0 1.29.26 1.76.73s.74 1.1.74 1.77v2.5h2.5V12.5c0-.34.13-.65.36-.89a1.266 1.266 0 0 1 1.77 0c.23.24.37.55.37.89Z" fill="#FCFCFC"/>
</svg>

<svg width="40.000000" height="30.000000" viewBox="0 0 40 30" fill="none" xmlns="http://www.w3.org/2000/svg" xmlns:xlink="http://www.w3.org/1999/xlink">
	<desc>
			Created with Pixso.
	</desc>
	<defs/>
	<path id="Vector" d="M40 12.5L40 22.5C40 22.83 39.86 23.14 39.63 23.38C39.39 23.61 39.08 23.75 38.75 23.75C38.41 23.75 38.1 23.61 37.86 23.38C37.63 23.14 37.5 22.83 37.5 22.5L37.5 18.75L35 18.75L35 21.25C35 21.91 34.73 22.54 34.26 23.01C33.79 23.48 33.16 23.75 32.5 23.75L30.51 23.75L25 29.26C24.76 29.5 24.49 29.68 24.18 29.81C23.88 29.93 23.56 30 23.23 30L13.01 30C12.68 30 12.36 29.93 12.06 29.81C11.75 29.68 11.48 29.5 11.25 29.26L5.73 23.75C5.49 23.51 5.31 23.24 5.18 22.93C5.06 22.63 4.99 22.31 5 21.98L5 18.75L2.5 18.75L2.5 22.5C2.5 22.83 2.36 23.14 2.13 23.38C1.89 23.61 1.58 23.75 1.25 23.75C0.91 23.75 0.6 23.61 0.36 23.38C0.13 23.14 0 22.83 0 22.5L0 12.5C0 12.16 0.13 11.85 0.36 11.61C0.6 11.38 0.91 11.25 1.25 11.25C1.58 11.25 1.89 11.38 2.13 11.61C2.36 11.85 2.5 12.16 2.5 12.5L2.5 16.25L5 16.25L5 7.5C5 6.83 5.26 6.2 5.73 5.73C6.2 5.26 6.83 5 7.5 5L17.5 5L17.5 2.5L13.75 2.5C13.41 2.5 13.1 2.36 12.86 2.13C12.63 1.89 12.5 1.58 12.5 1.25C12.5 0.91 12.63 0.6 12.86 0.36C13.1 0.13 13.41 0 13.75 0L23.75 0C24.08 0 24.39 0.13 24.63 0.36C24.86 0.6 25 0.91 25 1.25C25 1.58 24.86 1.89 24.63 2.13C24.39 2.36 24.08 2.5 23.75 2.5L20 2.5L20 5L23.23 5C23.56 4.99 23.88 5.06 24.18 5.18C24.49 5.31 24.76 5.49 25 5.73L30.51 11.25L32.5 11.25C33.16 11.25 33.79 11.51 34.26 11.98C34.73 12.45 35 13.08 35 13.75L35 16.25L37.5 16.25L37.5 12.5C37.5 12.16 37.63 11.85 37.86 11.61C38.1 11.38 38.41 11.25 38.75 11.25C39.08 11.25 39.39 11.38 39.63 11.61C39.86 11.85 40 12.16 40 12.5Z" fill="#FCFCFC" fill-opacity="1.000000" fill-rule="nonzero"/>
</svg>
